images/icons/source/subscribe.svg

<svg width="48" height="48" viewBox="0 0 48 48" version="1.1" xmlns="http://www.w3.org/2000/svg" xmlns:xlink="http://www.w3.org/1999/xlink" xmlns:figma="http://www.figma.com/figma/ns">
<title>subscribe</title>
<desc>Created using Figma</desc>
<g id="Canvas" transform="translate(57 -35)" figma:type="canvas">
<mask id="mask0_alpha" mask-type="alpha">
<path d="M -57 35L -9 35L -9 83L -57 83L -57 35Z" fill="#FFFFFF"/>
</mask>
<g id="subscribe" style="mix-blend-mode:normal;" mask="url(#mask0_alpha)" figma:type="frame">
<g id="Vector" style="mix-blend-mode:normal;" figma:type="vector">
<use xlink:href="#path0_fill" transform="translate(-55.9997 35.5517)" fill="#3BB75E" style="mix-blend-mode:normal;"/>
<use xlink:href="#path1_fill" transform="translate(-55.9997 35.5517)" fill="#3BB75E" style="mix-blend-mode:normal;"/>
<use xlink:href="#path2_fill" transform="translate(-55.9997 35.5517)" fill="#3BB75E" style="mix-blend-mode:normal;"/>
</g>
</g>
</g>
<defs>
<path id="path0_fill" fill-rule="evenodd" d="M 36.7999 16.1943C 36.7999 24.6562 31.2821 32.3886 23.511 32.3886C 15.7398 32.3886 10.222 24.6562 10.222 16.1943C 10.222 7.73242 15.7398 0 23.511 0C 31.2821 0 36.7999 7.73242 36.7999 16.1943ZM 23.511 30.3644C 29.7212 30.3644 34.7555 24.0202 34.7555 16.1943C 34.7555 8.36843 29.7212 2.02429 23.511 2.02429C 17.3008 2.02429 12.2665 8.36843 12.2665 16.1943C 12.2665 24.0202 17.3008 30.3644 23.511 30.3644Z"/>
<path id="path1_fill" fill-rule="evenodd" d="M 16.3554 32.5405C 16.5238 33.074 16.2234 33.6417 15.6846 33.8084L 15.3797 32.8424L 15.0748 31.8763C 15.6136 31.7096 16.187 32.0069 16.3554 32.5405ZM 15.0748 31.8763C 15.0749 31.8763 15.0748 31.8763 15.3797 32.8424L 15.6846 33.8084L 15.6833 33.8088L 15.6791 33.8101L 15.662 33.8154L 15.5941 33.8366C 15.5338 33.8554 15.4456 33.8829 15.3315 33.9188C 15.1028 33.9907 14.7741 34.0946 14.3686 34.2245C 13.5563 34.4847 12.4463 34.8458 11.2383 35.255C 8.81977 36.0742 6.07243 37.0616 4.59233 37.7962C 3.42294 38.3752 2.30104 40.0685 2.08113 41.6472C 1.97461 42.4118 2.105 42.981 2.36908 43.334C 2.60532 43.6498 3.08664 43.976 4.13517 43.976L 16.7852 43.976L 22.9665 43.976L 24.8892 43.976L 25.417 43.976L 25.5549 43.976L 25.5901 43.976L 25.599 43.976L 25.6012 43.976C 25.6013 43.976 25.602 43.976 25.602 44.9881C 25.602 46.0003 25.6019 46.0003 25.6018 46.0003L 25.599 46.0003L 25.5901 46.0003L 25.5549 46.0003L 25.417 46.0003L 24.8892 46.0003L 22.9665 46.0003L 16.7852 46.0003L 4.13517 46.0003C 2.62813 46.0003 1.44833 45.5041 0.726239 44.5389C 0.0319714 43.6109 -0.0931862 42.4404 0.0558475 41.3706C 0.347052 39.2802 1.78072 36.925 3.67802 35.9857C 5.2646 35.2021 8.13951 34.1652 10.5766 33.3397C 11.7963 32.9265 12.9225 32.5601 13.7393 32.2985C 14.1485 32.1674 14.4826 32.0618 14.7131 31.9893C 14.8286 31.953 14.9191 31.9247 14.9801 31.9057L 15.0502 31.8839L 15.0683 31.8783L 15.073 31.8768L 15.0748 31.8763ZM 26.6242 44.9881C 26.6242 45.5471 26.1663 46.0003 25.6018 46.0003L 25.602 44.9881L 25.6012 43.976C 26.1658 43.976 26.6242 44.4291 26.6242 44.9881Z"/>
<path id="path2_fill" fill-rule="evenodd" d="M 44.8642 35.7663L 38.958 35.7663L 38.958 29.9184C 38.958 29.3186 38.4279 28.7938 37.8222 28.7938C 37.2164 28.7938 36.6864 29.3186 36.6864 29.9184L 36.6864 35.7663L 30.7802 35.7663C 30.1744 35.7663 29.6444 36.2912 29.6444 36.891C 29.6444 37.4907 30.1744 38.0156 30.7802 38.0156L 36.6864 38.0156L 36.6864 43.8635C 36.6864 44.4633 37.2164 44.9881 37.8222 44.9881C 38.4279 44.9881 38.958 44.4633 38.958 43.8635L 38.958 38.0156L 44.8642 38.0156C 45.47 38.0156 46 37.4907 46 36.891C 46 36.2912 45.47 35.7663 44.8642 35.7663Z"/>
</defs>
</svg>

<svg width="48" height="48" viewBox="0 0 48 48" xmlns="http://www.w3.org/2000/svg" xmlns:xlink="http://www.w3.org/1999/xlink" xmlns:figma="http://www.figma.com/figma/ns">
    <title>
        subscribe
    </title>
    <desc>
        Created using Figma
    </desc>
    <g transform="translate(57 -35)" figma:type="canvas">
        <mask id="a">
            <path d="M-57 35h48v48h-48V35z" fill="#FFF"/>
        </mask>
        <g style="mix-blend-mode:normal" mask="url(#a)" figma:type="frame">
            <g style="mix-blend-mode:normal" figma:type="vector" transform="translate(-56 35.552)" fill="#3BB75E">
                <use xlink:href="#b" style="mix-blend-mode:normal"/>
                <use xlink:href="#c" style="mix-blend-mode:normal"/>
                <use xlink:href="#d" style="mix-blend-mode:normal"/>
            </g>
        </g>
    </g>
    <defs>
        <path id="b" fill-rule="evenodd" d="M36.8 16.194c0 8.462-5.518 16.195-13.289 16.195s-13.289-7.733-13.289-16.195S15.74 0 23.511 0 36.8 7.732 36.8 16.194zM23.51 30.364c6.21 0 11.244-6.344 11.244-14.17s-5.034-14.17-11.244-14.17-11.244 6.344-11.244 14.17 5.034 14.17 11.244 14.17z"/>
        <path id="c" fill-rule="evenodd" d="M16.355 32.54a1.01 1.01 0 0 1-.67 1.268l-.305-.966-.305-.966a1.024 1.024 0 0 1 1.28.665zm-1.28-.664l.305.966.305.966h-.002l-.004.002-.017.005-.068.022a99.564 99.564 0 0 0-1.225.387c-.813.26-1.923.622-3.13 1.031-2.42.82-5.167 1.807-6.647 2.541-1.17.58-2.291 2.273-2.51 3.851-.107.765.023 1.334.287 1.687.236.316.718.642 1.766.642H25.601l.001 1.012V46H4.135c-1.507 0-2.687-.496-3.409-1.461-.694-.928-.82-2.099-.67-3.168.291-2.09 1.725-4.446 3.622-5.385 1.587-.784 4.462-1.82 6.899-2.646a203.28 203.28 0 0 1 4.403-1.434l.07-.022.018-.006.005-.001h.002zm11.55 13.112c0 .56-.459 1.012-1.023 1.012v-2.024c.564 0 1.022.453 1.022 1.012z"/>
        <path id="d" fill-rule="evenodd" d="M44.864 35.766h-5.906v-5.848c0-.6-.53-1.124-1.136-1.124-.606 0-1.136.525-1.136 1.124v5.848H30.78c-.606 0-1.136.525-1.136 1.125s.53 1.125 1.136 1.125h5.906v5.848c0 .6.53 1.124 1.136 1.124.606 0 1.136-.525 1.136-1.124v-5.848h5.906c.606 0 1.136-.525 1.136-1.125s-.53-1.125-1.136-1.125z"/>
    </defs>
</svg>
